X: 69
T: Piano Sonata No. 17 in D major, K 576, mvmt. 3
C: Wolfgang Amadeus Mozart
%%abc-version 2.0
%%abcx-abcm2ps-target-version 5.9.1 (29 Sep 2008)
%%abc-creator hum2abc beta
%%abcx-conversion-date 2021/01/14 17:01:33
%%abc-copyright 2018 Craig Stuart Sapp
%%abc-edited-by Craig Stuart Sapp
%%abc-edited-by Craig Stuart Sapp
%%abcx-initial-encoding-date 2009/10/07
%%gracespace 0 6 6
%%humdrum-veritas 1190151099
%%humdrum-veritas-data 1547812814
%%linebreak <none>
%%barnumbers 0
L: 1/16
M: 2/4
N: Derived from sonata17-3.krn
Q: "Allegretto" 1/4=104
%%staves {1 2}
V: 1 clef=treble
V: 2 clef=treble
K: D
[V:1] d3e/d/ c2.d2 | 
[V:2] [K:clef=treble]z2 [F2A2][F2A2][F2A2] | 
[V:1] ^d2e2 .e2 z2 | 
[V:2] z2 [G2B2][G2B2][G2B2] | 
[V:1] e3f/e/ =d2.e2 | 
[V:2] z2 [C2A2][C2A2][C2A2] | 
[V:1] ^e2f2 f2 z2 | 
[V:2] z2 [D2A2][D2A2][D2A2] | 
[V:1] a>bg>a .f2.d2 | 
[V:2] A4-A2 z2 & F2E2 D2 x2 | 
[V:1] g>af>g .e2.c2 | 
[V:2] A4-A2 z2 & E2F2 G2 x2 | 
[V:1] .d2.d2.c2.c2 | 
[V:2] [F2A2] z2 [E2A2] z2[K:clef=bass] | 
[V:1] !mordent!B>AB>c .A2 z2 | 
[V:2] [E,4D4][A,2C2] z2 | 
[V:1] d3e/d/ c2.d2 | 
[V:2] (3DEF (3EDC (3B,CD (3CB,A, | 
[V:1] ^d2e2 .e2 z2 | 
[V:2] (3G,A,B, (3A,G,F, (3E,F,G, (3F,E,D, | 
[V:1] e3f/e/ =d2.e2 | 
[V:2] (3C,D,E, (3D,C,B,, (3A,,B,,A,, (3G,,F,,E,, | 
[V:1] ^e2f2 .f2 z2 | 
[V:2] (3D,,F,,G,, (3A,,B,,C, (3D,E,F, (3G,A,B, | 
[V:1] (3DFA (3def (3gfg (3bgd | 
[V:2] =C4B,2 z2 | 
[V:1] (3A^ce (3abc' (3d'c'b (3agf | 
[V:2] G,4F,2 z2 | 
[V:1] (3^deg (3bge (3af=d (3gec | 
[V:2] z2[K:clef=treble] [G,2G2][A,2F2][A,2E2][K:clef=bass] | 
[V:1] d4z2 d'2 | 
[V:2] (3D,F,A, (3DA,F, (3D,F,A, (3DA,F, | 
[V:1] c'ag4ec | 
[V:2] (3D,E,G, (3CG,E, (3D,E,G, (3CG,E, | 
[V:1] d4z2 d'2 | 
[V:2] (3D,F,A, (3DA,F, (3D,F,A, (3DA,F, | 
[V:1] c'ag4ec | 
[V:2] (3D,E,G, (3CG,E, (3D,E,G, (3CG,E, | 
[V:1] (3dAf (3ecg (3fda (3gec | 
[V:2] D,4z2[K:clef=treble] [A,2E2G2] | 
[V:1] (3dAf (3ecg (3fda (3gec | 
[V:2] [D4F4]z2 [A,2E2G2][K:clef=bass] | 
[V:1] (3dfd (3AdA (3FAF (3DFD | 
[V:2] [D,2D2][A,,2A,2][F,,2F,2][D,,2D,2] | 
[V:1] A,2 z2 [A2d2f2] z2 | 
[V:2] (3A,,,C,,E,, (3A,,C,E, (3D,,F,,A,, (3D,F,A, | 
[V:1] (3A,CE (3Ace (3fad' (3afd | 
[V:2] [A,,2C,2] z2 [A,,2D,2] z2 | 
[V:1] .a2.A2z4 | 
[V:2] [A,,2C,2] z2z4 | 
[V:1] z8 | 
[V:2] A,3B,/A,/ ^G,2.A,2 | 
[V:1] z2 d'f a2^g2 | 
[V:2] ^A,2B,2 .B,2 z2 | 
[V:1] z8 | 
[V:2] B,3C/B,/ =A,2.B,2 | 
[V:1] z2 e'^g b2^a2 | 
[V:2] ^B,2C2 .C2 z2[K:clef=treble] | 
[V:1] b3^a/b/ c'2.d'2 | 
[V:2] z2 [d2f2][c2e2][B2d2] | 
[V:1] =g2f2 z2 d'2 | 
[V:2] e4d4- & ^A4B4 | 
[V:1] =f2e2 z2 ec' | 
[V:2] d4c4- & ^G4=A4 | 
[V:1] b2a4^d2 | 
[V:2] c2=c2B2A2 & F4=F4 | 
[V:1] e3f/e/ ^d2.e2 | 
[V:2] ^G4z4[K:clef=bass] & E4x4 | 
[V:1] ^e2f2 .f2 z2 & A8 | 
[V:2] E3^D/E/ F2.E2 & E,8 | 
[V:1] ^g3a/g/ f2.g2 & B8 | 
[V:2] E2=D2 .D2 z2 & E,8 | 
[V:1] ^g2a2 .a2 z2 & e8 | 
[V:2] C3B,/C/ D2.C2 & E,8 | 
[V:1] b3c'/b/ a2.b2 & ^g8 | 
[V:2] C2B,2 .B,2 z2[K:clef=treble] & E,8 | 
[V:1] c'3d'/c'/ b2.c'2 & e8 | 
[V:2] A3B/A/ ^G2.^A2 & E8 | 
[V:1] (3d'b^g (3edB (3^GBd (3egb | 
[V:2] B4z4 & E4x4 | 
[V:1] (3d'b^g (3edB (3^GBd (3egb | 
[V:2] z8 | 
[V:1] (3d'bd' (3c'ac' (3b^gb (3afa | 
[V:2] .B2.A2.^G2.F2 | 
[V:1] (3^geg (3fdf (3ece (3dBd | 
[V:2] .E2.D2.C2.B,2 | 
[V:1] c2 (3e'c'a (3^gbe (3e'd'b | 
[V:2] A,2 z2 [d2e2] z2 | 
[V:1] (3ac'e (3e'c'a (3^gbe (3e'd'b | 
[V:2] [c2e2] z2 [d2e2] z2 | 
[V:1] (3ac'ee'4d'2- & x2 =g2f4 | 
[V:2] [c2e2] (3cec (3^AcA (3BdB | 
[V:1] d'2c'4b2- & e4d4 | 
[V:2] (3^GBG (3=AcA (3FAF (3^GBG | 
[V:1] b2a4^g2 & c4B4 | 
[V:2] (3^E^GE (3FAF (3^DFD (3=D=ED[K:clef=bass] | 
[V:1] (3ac'e (3fad (3ceA (3Bd^G | 
[V:2] C2D2E2E,2 | 
[V:1] A2 z2 [e2c'2][^e2b2] | 
[V:2] A,2 z2[K:clef=treble] A2^G2 | 
[V:1] [f2a2][c2^g2][d2f2][A2=e2] | 
[V:2] F2E2D2C2 | 
[V:1] edc2e4- | 
[V:2] [B,2^G2][A,2A2] z2 [C2E2] | 
[V:1] ed2c2B2A | 
[V:2] [F2A2][E2^G2][D2F2][^D2F2] | 
[V:1] [A2c2][^G2B2] (3c'd'c' (3bd'^e' | 
[V:2] E4e4 & x4A2^G2 | 
[V:1] (3aba (3^g^bc' (3f=gf (3e^ga | 
[V:2] c4A4 & F2E2 =D2C2 | 
[V:1] edc2e4- | 
[V:2] ^G2A2[K:clef=bass] z2 A,2- & B,2A,2 x2 C,2 | 
[V:1] efdB A2cB | 
[V:2] A,2D2C2^G,2 & D,4E,4 | 
[V:1] A2 z2 (3aec (3AEC | 
[V:2] (3A,,C,E, (3A,CE A2 z2 | 
[V:1] B,2 z2 (3b^gd (3B^GD | 
[V:2] (3A,,D,^G, (3B,DE ^G2 z2 | 
[V:1] C2 z2 (3c'ae (3cAE | 
[V:2] (3A,,C,E, (3A,CE =G2 z2 | 
[V:1] D2 z2 (3d'af (3dAF | 
[V:2] (3A,,D,F, (3A,DF A2 z2 | 
[V:1] E2 x2 (3z Ac (3egc' | 
[V:2] (3A,,C,E, (3A,CE G2 z2 | 
[V:1] (3e'ge' (3d'fd' (3c'ec' (3bgb | 
[V:2] z8 | 
[V:1] (3afa (3geg (3fdf (3ece | 
[V:2] z8[K:clef=treble] | 
[V:1] d3e/d/ c2.d2 | 
[V:2] z2 [F2A2][F2A2][F2A2] | 
[V:1] ^d2e2 .e2 z2 | 
[V:2] z2 [G2B2][G2B2][G2B2] | 
[V:1] e3f/e/ =d2.e2 | 
[V:2] z2 [C2A2][C2A2][C2A2] | 
[V:1] ^e2f2 .f2 z2 | 
[V:2] z2 [D2A2][D2A2][D2A2] | 
[V:1] a>bg>a .f2.d2 | 
[V:2] A4-A2 z2 & F2E2D2 x2 | 
[V:1] g>af>g .e2.c2 | 
[V:2] A4-A2 z2 & E2F2 G2 x2 | 
[V:1] .d2.d2.c2.c2 | 
[V:2] [F2A2] z2 [E2A2] z2[K:clef=bass] | 
[V:1] !mordent!B>AB>c.A2 z2 | 
[V:2] [E,4D4][A,2C2] z2 | 
[V:1] d3e/d/ c2.d2 | 
[V:2] (3DEF (3EDC (3B,CD (3CB,A, | 
[V:1] ^d2e2 .e2 z2 | 
[V:2] (3G,A,B, (3A,G,F, (3E,F,G, (3F,E,D, | 
[V:1] e3f/e/ =d2.e2 | 
[V:2] (3C,D,E, (3D,C,B,, (3A,,B,,A,, (3G,,F,,E,, | 
[V:1] ^e2f2 .f2 z2 | 
[V:2] (3D,,F,,G,, (3A,,B,,C, (3D,E,F, (3G,A,B, | 
[V:1] (3DFA (3def (3gfg (3bgd | 
[V:2] =C4B,2 z2 | 
[V:1] (3A^ce (3abc' (3d'c'b (3agf | 
[V:2] G,4F,2 z2 | 
[V:1] (3^deg (3bge (3af=d (3gec | 
[V:2] z2[K:clef=treble] [G,2G2][A,2F2][A,2E2][K:clef=bass] | 
[V:1] d4z2 d'2 | 
[V:2] (3D,F,A, (3DA,F, (3D,F,A, (3DA,F, | 
[V:1] c'ag4ec | 
[V:2] (3D,E,G, (3CG,E, (3D,E,G, (3CG,E, | 
[V:1] d4z2 d'2 | 
[V:2] (3D,=F,A, (3DA,F, (3D,F,A, (3DA,F, | 
[V:1] c'ag4ec | 
[V:2] (3D,E,G, (3CG,E, (3D,E,G, (3CG,E, | 
[V:1] (3dA=f (3ecg (3fda (3gec | 
[V:2] D,4z2[K:clef=treble] [A,2E2G2] | 
[V:1] (3dA=f (3ecg (3fda (3_bge | 
[V:2] [D4=F4]z2 [=C2G2_B2] | 
[V:1] (3=f=ca (3ge_b (3af=c' (3bge | 
[V:2] [=F4A4]z2 [=C2G2_B2] | 
[V:1] (3=f=ca (3ge_b (3af=c' (3d'=b^g | 
[V:2] [=F4A4]z2 [E2=B2d2] | 
[V:1] a4z2 [=f2d'2] | 
[V:2] (3AE=c (3B^Gd (3cAe (3dBG | 
[V:1] [e2^c'2][_e2=c'2][d2b2][_d2_b2] | 
[V:2] (3A^cA (3^FAF (3=GBG (3EGE | 
[V:1] [=c2a2][_B2g2][A2=f2][^F2_e2] | 
[V:2] (3=FAF (3^CEC (3DFD (3A,=CA, | 
[V:1] (3dG_B (3dg_b (3d'=c'b (3ag=f | 
[V:2] _B,6=B,2[K:clef=bass] | 
[V:1] =e2 z2 [=c2=f2a2] z2 | 
[V:2] (3=C,,E,,G,, (3=C,E,G, (3=F,,A,,C, (3=F,A,=C | 
[V:1] (3=CEG (3=ceg (3a=c'=f' (3c'a=f | 
[V:2] [=C,2E,2] z2 [C,2=F,2] z2 | 
[V:1] .=c'2.=c2z4 | 
[V:2] [=C,2E,2] z2z4 | 
[V:1] =f3g/f/ e2.f2 | 
[V:2] z8[K:clef=treble] | 
[V:1] ^f2g2 .g2 z2 | 
[V:2] z2 _BD =F2E2 | 
[V:1] g3a/g/ ^f2.g2 | 
[V:2] z8 | 
[V:1] ^g2a2 .a2 z2 | 
[V:2] z2 =cE =G2^F2[K:clef=bass] | 
[V:1] (3_b=c'd' (3c'ba (3gag (3=f_ed | 
[V:2] G,3A,/G,/ F,2.G,2 | 
[V:1] (3=cd_e (3dc_B (3ABc (3BAG | 
[V:2] ^G,2A,2 .A,2 z2 | 
[V:1] (3^F=cd (3_edc (3ag^f (3=c'_ba | 
[V:2] A,3_B,/A,/ =G,2A,2 | 
[V:1] (3=f'=e'd' (3=c'=ba (3^g=fe (3d=cB | 
[V:2] ^A,2=B,2 B,2 z2 | 
[V:1] A3B/A/ ^G2A2 | 
[V:2] z8 | 
[V:1] ^A2B2B4- & x4=A4- | 
[V:2] [K:clef=treble]D3E/D/ ^C2D2 | 
[V:1] B3=c/B/ =A2B2 & A2^G2z4 | 
[V:2] ^D2E2E4- | 
[V:1] ^B2^c2c4- & z4=B4- | 
[V:2] E3F/E/ ^D2E2 | 
[V:1] c3d/c/ B2c2 & B2^A2z4 | 
[V:2] ^E2F2F4[K:clef=bass] | 
[V:1] (3dFB (3dfb (3d'bf (3bfd | 
[V:2] B,3C/B,/ ^A,2.B,2 | 
[V:1] g3a/g/ f2.g2 | 
[V:2] (3E,E,,G,, (3B,,E,G, (3B,G,E, (3G,E,B,, | 
[V:1] (3cEA (3cea (3c'ae (3aec | 
[V:2] A,3B,/A,/ ^G,2A,2 | 
[V:1] f3g/f/ e2.f2 | 
[V:2] (3D,D,,F,, (3A,,D,F, (3A,F,D, (3F,D,A,, | 
[V:1] (3BEG (3BGB (3eBe (3geg | 
[V:2] G,8- | 
[V:1] (3b=c'b (3agf (3gag (3fed | 
[V:2] G,6^G,2 | 
[V:1] ^c2 z2 [A2d2f2] z2 | 
[V:2] (3A,,,C,,E,, (3A,,C,E, (3D,,F,,A,, (3D,F,A, | 
[V:1] (3A,CE (3Ace (3fad' (3afd | 
[V:2] [A,,2C,2] z2 [A,,2D,2] z2 | 
[V:1] .a2.A2z4 | 
[V:2] [A,,4C,4]z4[K:clef=treble] | 
[V:1] z8 | 
[V:2] D3E/D/ C2D2 | 
[V:1] z2 gB d2c2 | 
[V:2] ^D2E2 .E2 z2 | 
[V:1] z8 | 
[V:2] E3F/E/ =D2.E2 | 
[V:1] z2 ac e2^d2 | 
[V:2] ^E2F2 .F2 z2 | 
[V:1] e3^d/e/ f2.g2 | 
[V:2] z2 B2A2G2 & z2 G2F2=E2 | 
[V:1] =c2B2 z2 .g2 | 
[V:2] A4G4- & ^D4E4 | 
[V:1] _B2A2 z2 Af | 
[V:2] G4F4- & C4=D4 | 
[V:1] e2d4^G2 | 
[V:2] F2=F2E2D2 & B,4_B,4 | 
[V:1] A3B/A/ ^G2.A2 | 
[V:2] C4z4[K:clef=bass] & A,4z4 | 
[V:1] ^A2B2 .B2 z2 & D8 | 
[V:2] A,3^G,/A,/ B,2.A,2 & A,,8 | 
[V:1] c3d/c/ B2.c2 & E8 | 
[V:2] A,2=G,2 .G,2 z2 & A,,8 | 
[V:1] c2d2 .d2 z2 & A8 | 
[V:2] F,3E,/F,/ G,2.F,2 & A,,8 | 
[V:1] e3f/e/ d2.e2 & c8 | 
[V:2] F,2E,2 .E,2 z2 & A,,8 | 
[V:1] f3g/f/ e2.f2 & A8 | 
[V:2] D3E/D/ C2.^D2 & A,8 | 
[V:1] (3gec (3AGE (3CEG (3Ace | 
[V:2] E4z4 & A,4x4 | 
[V:1] (3gec (3AGE (3CEG (3Ace | 
[V:2] z8 | 
[V:1] (3geg (3fdf (3ece (3dBd | 
[V:2] .E2.D2.C2.B,2 | 
[V:1] (3cAc (3BGB (3AFA (3EGE | 
[V:2] .A,2.G,2.F,2.E,2 | 
[V:1] F2 (3afd (3ceA (3age | 
[V:2] D,2 z2[K:clef=treble] [G2A2] z2 | 
[V:1] (3dfA (3afd (3ceA (3age | 
[V:2] [F2A2] z2 [G2A2] z2 | 
[V:1] (3dfAa4g2- & x2 =c2B4 | 
[V:2] [F2A2] (3FAF (3^DFD (3EGE | 
[V:1] g2f4e2- & A4G4 | 
[V:2] (3CEC (3=DFD (3B,DB, (3CEC[K:clef=bass] | 
[V:1] e2d4c2 & F4E4 | 
[V:2] (3^A,CA, (3B,DB, (3^G,B,G, (3=G,=A,G, | 
[V:1] (3dd'f (3bd'g (3fad (3egc | 
[V:2] F,2G,2A,2A,,2 | 
[V:1] d2 z2 [A2f2][^A2e2] | 
[V:2] D,2 z2 D2C2 | 
[V:1] [B2d2][F2c2][G2B2][D2=A2] | 
[V:2] B,2A,2G,2F,2 | 
[V:1] AGF2A4- | 
[V:2] [E,2C2][D,2D2] z2 [F,2A,2] | 
[V:1] AG2F2E2D | 
[V:2] [B,2D2][A,2C2][G,2B,2][^G,2B,2] | 
[V:1] [D2F2][C2E2] (3fgf (3e^ga | 
[V:2] A,4[K:clef=treble]A4 & x4D2C2 | 
[V:1] (3ded (3c^ef (3B=cB (3A^cd | 
[V:2] F4[K:clef=bass]D4 & B,2A,2 =G,2F,2 | 
[V:1] AGF2a4- | 
[V:2] C2D2 z2 D2- & E,2D,2 x2 F,2 | 
[V:1] abge d2fe | 
[V:2] D2G2F2C2 & G,4A,4 | 
[V:1] d2 z2 (3d'af (3dAF | 
[V:2] (3D,,F,,A,, (3D,F,A, D2 z2 | 
[V:1] E2 z2 (3e'c'g (3ecG | 
[V:2] (3D,,G,,C, (3E,G,A, C2 z2 | 
[V:1] F2 z2 (3=c'af (3d=cA | 
[V:2] (3D,,F,,A,, (3D,F,A, D2 z2[K:clef=treble] | 
[V:1] (3z B^d (3fbB (3z e^g (3be'e | 
[V:2] [^D4A4][=D4^G4] | 
[V:1] (3z Ac (3eaA (3z df (3ad'd | 
[V:2] [C4=G4][=C4F4][K:clef=bass] | 
[V:1] (3z ag (3z gf (3z gf (3z ed | 
[V:2] D2^C2B,4 & B,2A,2G,2^G,2 | 
[V:1] (3cAe (3cae (3c'ae' (3c'ae | 
[V:2] A,4z4 | 
[V:1] (3fda (3fd'a (3fad (3fAd | 
[V:2] [A,4D4]z4 | 
[V:1] (3cAe (3cae (3c'ae' (3c'ae | 
[V:2] [A,4C4E4]z4 | 
[V:1] (3=fda (3fd'a (3fad (3fAd | 
[V:2] [A,4D4=F4]z4 | 
[V:1] (3c x x (3x x [Ac] (3[Bd] x x (3x x [Bd] | 
[V:2] (3z A,C(3EA x (3x A,B,(3D^G x | 
[V:1] (3[ce] x x (3x x [ce] (3[df] x x (3x x [df] | 
[V:2] (3x A,C(3E=G x (3x A,C(3D^F x | 
[V:1] (3gc'e' (3fe'd' (3egc' (3dc'b | 
[V:2] [A,,8A,8]- | 
[V:1] (3cea (3Bag (3Acf (3Gfe | 
[V:2] [A,,8A,8][K:clef=treble] | 
[V:1] d3e/d/ c2.d2 | 
[V:2] z2 [F2A2][F2A2][F2A2] | 
[V:1] ^d2e2 .e2 z2 | 
[V:2] z2 [G2B2][G2B2][G2B2] | 
[V:1] e2fe =d2.e2 | 
[V:2] z2 [C2A2][C2A2][C2A2] | 
[V:1] ^e2f2 .f2 z2 | 
[V:2] z2 [D2A2][D2A2][D2A2] | 
[V:1] a>bg>a f2.d2 | 
[V:2] A4-A2 z2 & F2E2 D2 x2 | 
[V:1] g>af>g e2.c2 | 
[V:2] A4-A2 z2 & E2F2 G2 x2 | 
[V:1] .d2.d2.c2.c2 | 
[V:2] [F2A2] z2 [E2A2] z2[K:clef=bass] | 
[V:1] !mordent!B>AB>c .A2 z2 | 
[V:2] [E,4D4][A,2C2] z2 | 
[V:1] d3e/d/ c2.d2 | 
[V:2] (3DEF (3EDC (3B,CD (3CB,A, | 
[V:1] ^d2e2 .e2 z2 | 
[V:2] (3G,A,B, (3A,G,F, (3E,F,G, (3F,E,D, | 
[V:1] e3f/e/ =d2.e2 | 
[V:2] (3C,D,E, (3D,C,B,, (3A,,B,,A,, (3G,,F,,E,, | 
[V:1] ^e2f2 .f2 z2 | 
[V:2] (3D,,F,,G,, (3A,,B,,C, (3D,E,F, (3G,A,B, | 
[V:1] (3DFA (3def (3gfg (3bgd | 
[V:2] =C4B,2 z2 | 
[V:1] (3A^ce (3abc' (3d'c'b (3agf | 
[V:2] G,4F,2 z2 | 
[V:1] (3^deg (3bge (3af=d (3gec | 
[V:2] z2[K:clef=treble] [G,2G2][A,2F2][A,2E2][K:clef=bass] | 
[V:1] (3dfa (3d'dd' (3d'c'b (3agf | 
[V:2] [F,8A,8D8] | 
[V:1] (3Beg (3bBb (3bag (3fed | 
[V:2] [G,8E8F8] | 
[V:1] (3Adf (3afd (3Ace (3gec | 
[V:2] [A,2D2F2] z2 [A,2E2G2] z2 | 
[V:1] (3dfa (3d'dd' (3d'c'b (3agf | 
[V:2] [F,8A,8D8] | 
[V:1] (3Beg (3bBb (3bag (3fed | 
[V:2] [G,8D8E8] | 
[V:1] (3Adf (3afd (3Ace (3gec | 
[V:2] [A,2D2F2] z2 [A,2E2G2] z2 | 
[V:1] d2 z2 [g2b2] z2 | 
[V:2] (3D,DC (3DCD (3D,DC (3DCD | 
[V:1] [f2a2] z2 [c2g2] z2 | 
[V:2] (3D,DC (3DCD (3D,DC (3DCD | 
[V:1] [d2f2] z2 [B2g2] z2 | 
[V:2] (3D,DC (3DCD (3D,DC (3DCD | 
[V:1] [A2f2] z2 [G2c2] z2 | 
[V:2] (3D,DC (3DCD (3D,DC (3DCD | 
[V:1] [F2d2] z2 [A2f2] z2 | 
[V:2] D,2 z2 D2 z2 | 
[V:1] [F4d4]z4 |]  
[V:2] D,4z4 |]  



